X:199
T:Dulaman na Binne Bui
T:Seaweed from the Yellow Rock
Z:Jack Campin, http://www.campin.me.uk/
F:Jack Campin's Nine-Note Tunebook
% last edit 03-02-2013
N:originally in G
M:C|
L:1/8
Q:1/2=100
K:D
 DEFD GEFD|DEFG AF d2|DEFD GEFD|~E3F    GAFD |
~D3F  GAFD|DEFG AF d2|DEFD GEFD|~E3F    G2FE||
 FGAF dFAD|FDAc d2~D2|FGAF dFAF|~E3F [1 G2FE:|\
                                     [2 GAFE||

